docs/assets/images/billing_logo.svg

<svg width="104" height="24" viewBox="0 0 104 24" fill="none" xmlns="http://www.w3.org/2000/svg">
<path d="M33.0533 17.5547V6.09438H37.5573V17.5452L33.0533 17.5547ZM52.2121 17.5452V11.1953C52.2121 7.11456 50.0451 5.84649 47.5085 5.81788C46.2402 5.79881 44.7322 6.20879 43.7136 7.34339L43.5139 6.09438H39.5392V17.5452H43.9732V11.5195C43.9732 10.013 44.9719 9.31701 46.0405 9.31701C46.8693 9.31701 47.7182 9.80327 47.7182 11.2144V17.5452H52.2121ZM53.8163 18.3652C53.5767 21.8643 55.9834 24 60.2976 24C63.733 24 67.1185 22.608 67.1185 18.8991C67.1185 18.2698 66.9686 16.649 64.7516 15.4476C66.1398 14.4942 66.9187 13.0831 66.9387 11.6434C66.9986 10.5088 66.5892 9.40282 65.7902 8.56379L67.3581 6.79992L64.1225 4.59748C63.733 5.08373 63.2437 5.66533 62.8342 6.17065C62.0353 5.88462 61.1964 5.7416 60.3475 5.73207C56.6226 5.73207 53.6466 8.00126 53.6466 11.5957C53.6466 15.1425 56.303 17.364 60.3475 17.364C61.9754 17.364 62.5146 18.0601 62.5146 18.8896C62.5146 20.0051 61.466 20.539 60.2976 20.539C59.1092 20.539 57.9807 20.1481 58.0307 18.3652H53.8163ZM60.3475 9.2312C61.6658 9.2312 62.6145 10.2991 62.6145 11.5957C62.6145 13.1212 61.5459 13.8459 60.3475 13.8459C59.0293 13.8459 58.0107 12.9687 58.0107 11.5957C58.0107 10.0607 59.0293 9.2312 60.3475 9.2312ZM74.6174 18.3652C74.3777 21.8643 76.7845 24 81.0987 24C84.534 24 87.9195 22.608 87.9195 18.8991C87.9195 18.2698 87.7697 16.649 85.5527 15.4476C86.9408 14.4942 87.7197 13.0831 87.7397 11.6434C87.7996 10.5088 87.3902 9.40282 86.5912 8.56379L88.1491 6.79992L84.9235 4.59748C84.534 5.08373 84.0447 5.66533 83.6352 6.17065C82.8363 5.88462 81.9974 5.7416 81.1486 5.73207C77.4236 5.73207 74.4476 8.00126 74.4476 11.5957C74.4476 15.1425 77.104 17.364 81.1486 17.364C82.7764 17.364 83.3157 18.0601 83.3157 18.8896C83.3157 20.0051 82.2671 20.539 81.0987 20.539C79.9003 20.539 78.7818 20.1481 78.8317 18.3652H74.6174ZM81.1486 9.2312C82.4668 9.2312 83.4155 10.2991 83.4155 11.5957C83.4155 13.1212 82.347 13.8459 81.1486 13.8459C79.8304 13.8459 78.8117 12.9687 78.8117 11.5957C78.8017 10.0607 79.8304 9.2312 81.1486 9.2312ZM89.6172 18.3652C89.3775 21.8643 91.7842 24 96.0984 24C99.5338 24 102.919 22.608 102.919 18.8991C102.919 18.2698 102.769 16.649 100.552 15.4476C101.941 14.4942 102.72 13.0831 102.739 11.6434C102.799 10.5088 102.39 9.40282 101.591 8.56379L103.149 6.79992L99.9233 4.59748C99.5338 5.08373 99.0445 5.66533 98.635 6.17065C97.8361 5.88462 96.9972 5.7416 96.1484 5.73207C92.4234 5.73207 89.4474 8.00126 89.4474 11.5957C89.4474 15.1425 92.1038 17.364 96.1484 17.364C97.7762 17.364 98.3154 18.0601 98.3154 18.8896C98.3154 20.0051 97.2669 20.539 96.0984 20.539C94.9 20.539 93.7816 20.1481 93.8315 18.3652H89.6172ZM96.1484 9.2312C97.4666 9.2312 98.4153 10.2991 98.4153 11.5957C98.4153 13.1212 97.3468 13.8459 96.1484 13.8459C94.8301 13.8459 93.8115 12.9687 93.8115 11.5957C93.8115 10.0607 94.8301 9.2312 96.1484 9.2312Z" fill="#32375E"/>
<path d="M26.9441 0V17.5547L31.4481 17.5452V0H26.9441Z" fill="#32375E"/>
<path d="M20.9295 0V17.5547L25.4334 17.5452V0H20.9295Z" fill="#32375E"/>
<path d="M14.884 6.09438V17.5547L19.3879 17.5452V6.09438H14.884Z" fill="#32375E"/>
<path d="M0 0V17.5951L4.32672 17.5882V0H0Z" fill="#32375E"/>
<path fill-rule="evenodd" clip-rule="evenodd" d="M0 11.8199C0 8.22539 2.97601 5.9562 6.70099 5.9562H6.75442C10.4794 5.9562 13.4554 8.22539 13.4554 11.8199C13.4554 15.3667 10.6153 17.5882 6.75442 17.5882H6.70099C2.84006 17.5882 0 15.3667 0 11.8199ZM6.78646 9.63504C8.17401 9.63504 9.17264 10.7029 9.17264 11.9996C9.17264 13.5251 8.04787 14.2497 6.78646 14.2497C5.39892 14.2497 4.32672 13.3725 4.32672 11.9996C4.32672 10.4645 5.39892 9.63504 6.78646 9.63504Z" fill="#32375E"/>
<path d="M70.6867 9.78467C71.2199 9.78467 71.5819 9.98014 71.8157 10.2451C72.0579 10.5195 72.1895 10.9002 72.1886 11.2982C72.1877 11.6962 72.0544 12.0778 71.811 12.3531C71.5759 12.6191 71.2145 12.8139 70.6867 12.8139C70.1728 12.8139 69.8181 12.6213 69.5852 12.3551C69.3438 12.0792 69.2102 11.6961 69.208 11.2965C69.2058 10.897 69.3352 10.5162 69.5735 10.2427C69.8031 9.97908 70.1592 9.78467 70.6867 9.78467Z" fill="#3F7BDA" stroke="#3F7BDA"/>
</svg>

<svg xmlns="http://www.w3.org/2000/svg" fill="none" viewBox="0 0 104 24"><path fill="#32375E" d="M33.053 17.555V6.095h4.504v11.45l-4.504.01zm19.16-.01v-6.35c0-4.08-2.168-5.349-4.705-5.377-1.268-.02-2.776.39-3.794 1.525l-.2-1.249h-3.975v11.451h4.434V11.52c0-1.506.999-2.202 2.068-2.202.828 0 1.677.486 1.677 1.897v6.331h4.494zm1.603.82c-.24 3.5 2.167 5.635 6.482 5.635 3.435 0 6.82-1.392 6.82-5.1 0-.63-.15-2.251-2.366-3.452 1.388-.954 2.167-2.365 2.187-3.805a4.136 4.136 0 0 0-1.149-3.08L67.358 6.8l-3.236-2.203c-.389.487-.878 1.068-1.288 1.574a7.617 7.617 0 0 0-2.487-.439c-3.724 0-6.7 2.27-6.7 5.864 0 3.546 2.656 5.768 6.7 5.768 1.628 0 2.168.696 2.168 1.526 0 1.115-1.049 1.649-2.217 1.649-1.189 0-2.317-.39-2.267-2.174h-4.215zm6.531-9.134c1.319 0 2.267 1.068 2.267 2.365 0 1.525-1.068 2.25-2.267 2.25-1.318 0-2.336-.877-2.336-2.25 0-1.535 1.018-2.365 2.336-2.365zm14.27 9.134C74.377 21.865 76.784 24 81.1 24c3.435 0 6.82-1.392 6.82-5.1 0-.63-.15-2.251-2.366-3.452 1.388-.954 2.167-2.365 2.187-3.805a4.136 4.136 0 0 0-1.149-3.08L88.15 6.8l-3.225-2.203c-.39.487-.88 1.068-1.289 1.574a7.617 7.617 0 0 0-2.486-.439c-3.725 0-6.701 2.27-6.701 5.864 0 3.546 2.656 5.768 6.7 5.768 1.628 0 2.168.696 2.168 1.526 0 1.115-1.049 1.649-2.217 1.649-1.199 0-2.317-.39-2.267-2.174h-4.215zm6.532-9.134c1.318 0 2.266 1.068 2.266 2.365 0 1.525-1.068 2.25-2.266 2.25-1.319 0-2.337-.877-2.337-2.25-.01-1.535 1.018-2.365 2.337-2.365zm8.468 9.134c-.24 3.5 2.167 5.635 6.481 5.635 3.436 0 6.821-1.392 6.821-5.1 0-.63-.15-2.251-2.367-3.452 1.389-.954 2.168-2.365 2.187-3.805a4.135 4.135 0 0 0-1.148-3.08l1.558-1.763-3.226-2.203c-.39.487-.879 1.068-1.288 1.574a7.617 7.617 0 0 0-2.487-.439c-3.725 0-6.7 2.27-6.7 5.864 0 3.546 2.656 5.768 6.7 5.768 1.628 0 2.167.696 2.167 1.526 0 1.115-1.048 1.649-2.217 1.649-1.198 0-2.316-.39-2.266-2.174h-4.215zm6.531-9.134c1.319 0 2.267 1.068 2.267 2.365 0 1.525-1.068 2.25-2.267 2.25-1.318 0-2.337-.877-2.337-2.25 0-1.535 1.02-2.365 2.337-2.365zM26.944 0v17.555l4.504-.01V0h-4.504zM20.93 0v17.555l4.503-.01V0H20.93zM14.884 6.094v11.46l4.504-.009V6.095h-4.504zM0 0v17.595l4.327-.007V0H0z"/><path fill="#32375E" fill-rule="evenodd" d="M0 11.82c0-3.595 2.976-5.864 6.701-5.864h.053c3.725 0 6.701 2.27 6.701 5.864 0 3.547-2.84 5.768-6.7 5.768H6.7C2.841 17.588 0 15.367 0 11.82zm6.786-2.185c1.388 0 2.387 1.068 2.387 2.365 0 1.525-1.125 2.25-2.387 2.25-1.387 0-2.46-.877-2.46-2.25 0-1.536 1.073-2.365 2.46-2.365z" clip-rule="evenodd"/><path fill="#3F7BDA" stroke="#3F7BDA" d="M70.687 9.785c.533 0 .895.195 1.129.46.242.275.373.655.373 1.053-.001.398-.135.78-.378 1.055-.235.266-.597.46-1.124.46-.514 0-.869-.192-1.102-.458a1.627 1.627 0 0 1-.377-1.059c-.002-.399.127-.78.365-1.053.23-.264.586-.458 1.114-.458z"/></svg>
